public/mdd-assessor-bot/parrot-head-2.svg

<svg fill="none" height="512" viewBox="0 0 512 512" width="512" xmlns="http://www.w3.org/2000/svg" xmlns:xlink="http://www.w3.org/1999/xlink"><clipPath id="a"><path d="m76 47h360v465h-360z"/></clipPath><rect fill="#fff" height="512" rx="110" width="512"/><g clip-path="url(#a)"><path d="m410.124 285.948c-.32 1.609-1.314 3.589-4.217 3.891-.084.008-.169.015-.253.019-3.12.202-6.064 1.535-8.275 3.747-2.414 2.419-3.775 5.703-3.775 9.119 0 3.229 1.21 6.339 3.392 8.718.777.843 1.59 1.66 2.418 2.426 4.451 4.163 2.803 9.192 2.192 10.635-.772 1.822-3.201 6.027-9.021 5.717-.026 0-.052-.003-.077-.003-.21-.011-.42-.026-.63-.041-3.561-.25-7.071.987-9.687 3.428-2.612 2.437-4.099 5.849-4.099 9.424v168.972h-244.181v-169.351c0-3.575-1.486-6.988-4.098-9.425-2.616-2.437-6.126-3.677-9.688-3.427-.213.015-.423.033-.636.04-.022.004-.048.004-.07.004-5.835.302-8.253-3.895-9.025-5.713-.611-1.443-2.256-6.472 2.192-10.636.828-.766 1.641-1.583 2.418-2.43 2.182-2.378 3.396-5.489 3.396-8.717 0-3.417-1.362-6.7-3.775-9.115-2.215-2.217-5.155-3.545-8.279-3.748-.08-.007-.165-.011-.25-.022-2.903-.298-3.896-2.279-4.22-3.891-.239-1.215-.456-4.227 2.785-5.971 8.676-4.68 15.56-11.07 20.464-18.989 5.751-9.296 8.639-20.528 8.588-33.383-.011-2.647-.019-5.165-.019-7.37 0-28.214 20.402-54.197 53.243-67.808 6.442-2.669 9.592-9.991 7.101-16.507-4.07-10.639-4.592-19.309-1.553-25.766.563-1.189 1.542-1.66 2.267-1.848.555-.144 2.005-.361 3.44.681 10.099 7.319 21.895 8.6 23.208 8.725 3.492.324 6.961-.792 9.614-3.085 2.653-2.294 4.253-5.574 4.437-9.075.549-10.5101 3.212-18.5834 7.918-23.9914 3.562-4.0937 8.532-6.8878 14.772-8.3015 1.288-.2908 2.16-.0736 2.911.7326.717.7657 1.067 1.8738.838 2.6432-4.404 14.7514-5.897 24.4301-5.96 24.8351-.99 6.512 3.094 12.726 9.463 14.398 6.373 1.671 12.977-1.738 15.31-7.901 2.159-5.702 9.889-9.1554 13.215-9.0744.317.0074 7.605.3019 7.819 8.4634-.066.398-.228 1.156-.35 1.73-.96 4.47-2.564 11.947.769 20.428 3.525 8.965 11.369 16.129 23.982 21.894 14.996 7.274 27.715 17.015 36.792 28.177 10.206 12.554 15.379 26.355 15.379 41.029 0 2.205-.007 4.723-.018 7.367-.055 12.859 2.837 24.091 8.587 33.386 4.901 7.919 11.785 14.306 20.461 18.985 3.241 1.749 3.028 4.76 2.785 5.975z" fill="#fff"/><path d="m178.243 285.782c-2.303 3.707-6.196 6.612-10.269 7.941-4.879 1.682-10.471 1.347-15.107-.876-4.272-2.051-6.656-5.128-7.988-8.055-1.276-2.813 1.752-5.651 4.489-4.211 3.149 1.656 7.241 3.254 11.593 3.508 4.677.272 9.393-1.344 12.999-3.074 3.002-1.436 6.041 1.94 4.283 4.767z" fill="#fff"/><path d="m178.478 257.189-1.317 2.286c-4.548 7.882-14.621 10.584-22.502 6.034-7.878-4.554-10.578-14.634-6.031-22.516l1.321-2.286c3.05-5.29 8.588-8.242 14.279-8.242 2.797 0 5.63.71 8.224 2.209 7.877 4.55 10.577 14.633 6.026 22.515z" fill="#fff"/><path d="m333.522 257.189c-4.548-7.882-1.851-17.965 6.03-22.515 2.594-1.499 5.427-2.209 8.22-2.209 5.695 0 11.232 2.952 14.282 8.242l1.318 2.286c4.551 7.882 1.85 17.962-6.031 22.516-7.877 4.55-17.951 1.848-22.502-6.034z" fill="#fff"/><path d="m367.124 284.792c-1.328 2.927-3.716 6.004-7.984 8.055-4.635 2.223-10.232 2.558-15.107.876-4.073-1.329-7.965-4.234-10.272-7.941-1.755-2.827 1.284-6.203 4.286-4.767 3.602 1.73 8.323 3.346 12.999 3.074 4.353-.254 8.44-1.852 11.593-3.508 2.734-1.44 5.766 1.398 4.485 4.211z" fill="#fff"/><g fill="#020203"><path d="m435.378 290.999c2.716-13.592-3.639-27.14-15.821-33.711-10.496-5.662-15.57-15.337-15.511-29.576.011-2.684.018-5.239.018-7.477 0-10.742-1.972-21.271-5.861-31.292-3.543-9.126-8.687-17.873-15.295-25.998-11.468-14.103-27.267-26.267-45.689-35.179-.091-.048-.183-.089-.275-.133-8.702-3.957-10.479-7.068-10.817-7.93-.457-1.159-.14-2.886.441-5.588.442-2.058.942-4.388.927-6.969-.048-10.05-3.911-19.0951-10.872-25.475-5.949-5.4484-13.966-8.6991-22.002-8.92-2.248-.0589-4.606.1436-7.009.5964-.541-6.3283-3.212-12.4762-7.737-17.3246-6.991-7.488-17.241-10.5803-27.418-8.2758-11.693 2.6469-21.285 8.2021-28.514 16.5147-5.424 6.2326-9.331 13.8494-11.686 22.7547-7.06-4.6827-15.706-6.159-23.918-4.0459-8.455 2.1757-15.435 7.9371-19.151 15.819-4.75 10.0905-5.67 21.6245-2.756 34.4025-15.578 8.081-28.849 18.845-38.801 31.542-12.881 16.441-19.691 35.504-19.691 55.122 0 2.238.007 4.793.018 7.477.059 14.239-5.015 23.918-15.5191 29.58-10.3019 5.558-16.4389 16.113-16.4389 27.459 0 2.065.2024 4.156.6218 6.247 1.3687 6.855 4.7683 12.705 9.566 16.986-3.2634 8.346-3.223 17.803.4967 26.584 4.1171 9.711 11.9797 16.746 21.4725 19.78v158.031h25.754v-169.352c0-3.574-1.486-6.987-4.098-9.424-2.616-2.437-6.126-3.678-9.688-3.427-.213.014-.423.033-.636.04-.022.004-.048.004-.07.004-5.835.302-8.253-3.895-9.025-5.714-.611-1.443-2.256-6.472 2.192-10.635.828-.766 1.641-1.583 2.418-2.43 2.182-2.378 3.396-5.489 3.396-8.717 0-3.417-1.362-6.701-3.775-9.116-2.215-2.216-5.155-3.545-8.279-3.747-.08-.008-.165-.011-.25-.022-2.903-.299-3.896-2.279-4.22-3.892-.239-1.214-.456-4.226 2.785-5.971 8.676-4.679 15.56-11.07 20.464-18.988 5.751-9.296 8.639-20.528 8.588-33.383-.011-2.647-.019-5.165-.019-7.37 0-28.215 20.402-54.198 53.243-67.808 6.442-2.669 9.592-9.991 7.101-16.507-4.07-10.639-4.592-19.309-1.553-25.766.563-1.189 1.542-1.661 2.267-1.848.555-.144 2.005-.361 3.44.681 10.099 7.318 21.895 8.599 23.208 8.725 3.492.324 6.961-.792 9.614-3.085 2.653-2.294 4.253-5.574 4.437-9.075.549-10.5104 3.212-18.5837 7.918-23.9916 3.562-4.0937 8.532-6.8879 14.772-8.3015 1.288-.2909 2.16-.0737 2.911.7325.717.7658 1.067 1.8739.838 2.6433-4.404 14.7513-5.897 24.4293-5.96 24.8343-.99 6.513 3.094 12.727 9.463 14.398 6.373 1.672 12.977-1.737 15.31-7.9 2.159-5.702 9.889-9.1556 13.215-9.0746.317.0073 7.605.3018 7.819 8.4636-.066.397-.228 1.156-.35 1.73-.96 4.469-2.564 11.946.769 20.428 3.525 8.964 11.369 16.128 23.982 21.893 14.996 7.275 27.715 17.016 36.792 28.178 10.206 12.553 15.379 26.355 15.379 41.029 0 2.205-.007 4.723-.018 7.366-.055 12.859 2.837 24.091 8.587 33.387 4.901 7.919 11.785 14.306 20.461 18.985 3.241 1.748 3.028 4.76 2.785 5.975-.32 1.608-1.314 3.589-4.217 3.891-.084.007-.169.015-.253.018-3.12.203-6.064 1.535-8.275 3.748-2.414 2.419-3.775 5.702-3.775 9.119 0 3.228 1.21 6.339 3.392 8.717.777.843 1.59 1.661 2.418 2.426 4.451 4.164 2.803 9.193 2.192 10.636-.772 1.822-3.201 6.026-9.021 5.717-.026 0-.052-.004-.077-.004-.21-.011-.42-.025-.63-.04-3.561-.25-7.071.986-9.687 3.427-2.612 2.437-4.099 5.85-4.099 9.425v168.972h25.755v-157.652c9.489-3.034 17.355-10.072 21.472-19.784 3.72-8.776 3.757-18.234.493-26.583 4.802-4.278 8.198-10.128 9.566-16.982z"/><path d="m357.341 265.509c-7.877 4.55-17.951 1.848-22.502-6.034l-1.317-2.286c-4.548-7.882-1.851-17.965 6.03-22.515 2.594-1.499 5.427-2.209 8.22-2.209 5.695 0 11.232 2.952 14.282 8.242l1.318 2.286c4.551 7.882 1.85 17.962-6.031 22.516z"/><path d="m178.478 257.189-1.317 2.286c-4.548 7.882-14.621 10.584-22.502 6.034-7.878-4.554-10.578-14.634-6.031-22.516l1.321-2.286c3.05-5.29 8.588-8.242 14.279-8.242 2.797 0 5.63.71 8.224 2.209 7.877 4.55 10.577 14.633 6.026 22.515z"/><path d="m300.096 272.434c-.508 2.816-1.251 5.492-2.219 8.021.983-3.552 1.763-6.372 2.219-8.021z"/><path d="m314.975 276.339-.033.115c-.475 1.719-1.321 4.778-2.392 8.651 1.085-2.975 1.943-6.082 2.564-9.307-.04.181-.088.361-.139.541z"/><path d="m313.783 242.596c-4.36-16.861-16.995-30.316-34.663-36.917-19.717-7.37-42.263-4.86-58.842 6.549-12.465 8.581-21.295 21.223-26.248 37.572-7.115 23.502-6.427 45.974 2.05 66.784 6.953 17.078 17.752 30.103 27.329 40.974 4.22 4.794 9.905 7.382 15.975 7.382 1.178 0 2.366-.096 3.562-.291 8.109-1.337 15.181-7.028 18.451-14.851.504-1.204 1.108-2.559 1.822-4.035 3.366.663 6.755 1.66 9.496 3.137 2.469 1.329 5.195 1.999 7.951 1.999 2.27 0 4.562-.453 6.751-1.366 5.055-2.113 8.841-6.339 10.387-11.6 1.81-6.174 10.257-36.623 14.746-52.828 1.071-3.873 1.917-6.932 2.392-8.651l.033-.114c.051-.181.099-.361.14-.542.007-.025.011-.051.014-.081.022-.099.041-.198.059-.301.258-1.385.471-2.787.64-4.212 1.472-12.322-.651-23.211-2.045-28.608zm-13.227 26.782c-.125 1.034-.276 2.054-.46 3.056-.508 2.816-1.251 5.492-2.219 8.021v.011c-2.884 7.536-7.785 13.776-14.651 18.632-13.388 9.468-22.458 20.627-28.414 30.158-3.547 5.68-5.994 10.783-7.594 14.6-.037.089-.078.177-.114.265-1.273 2.798-3.853 4.882-6.649 5.338-2.123.35-3.977-.349-5.5-2.08-19.585-22.228-39.376-49.588-26.197-93.117 3.915-12.925 10.725-22.799 20.247-29.351 4.798-3.303 10.28-5.611 16.064-6.885-5.151 9.911-7.167 16.894-7.767 21.676-.53 4.245 4.643 6.745 7.668 3.722 3.848-3.847 6.832-11.051 19.297-21.727 1.358-1.164 3.845-3.06 7.348-2.342.713.229 1.424.475 2.13.74 12.899 4.819 22.068 14.428 25.155 26.359 1.126 4.348 2.837 13.106 1.663 22.924z"/><path d="m178.243 285.782c-2.303 3.707-6.196 6.612-10.269 7.941-4.879 1.682-10.471 1.347-15.107-.876-4.272-2.051-6.656-5.128-7.988-8.055-1.276-2.813 1.752-5.651 4.489-4.211 3.149 1.656 7.241 3.254 11.593 3.508 4.677.272 9.393-1.344 12.999-3.074 3.002-1.436 6.041 1.94 4.283 4.767z"/><path d="m367.124 284.792c-1.328 2.927-3.716 6.004-7.984 8.055-4.635 2.223-10.232 2.558-15.107.876-4.073-1.329-7.965-4.234-10.272-7.941-1.755-2.827 1.284-6.203 4.286-4.767 3.602 1.73 8.323 3.346 12.999 3.074 4.353-.254 8.44-1.852 11.593-3.508 2.734-1.44 5.766 1.398 4.485 4.211z"/></g></g></svg>

<svg width="512" height="512" viewBox="0 0 512 512" fill="none" xmlns="http://www.w3.org/2000/svg">
<rect width="512" height="512" rx="110" fill="white"/>
<g clip-path="url(#clip0_2655_13891)">
<path d="M410.124 285.948C409.804 287.557 408.81 289.537 405.907 289.839C405.823 289.847 405.738 289.854 405.654 289.858C402.534 290.06 399.59 291.393 397.379 293.605C394.965 296.024 393.604 299.308 393.604 302.724C393.604 305.953 394.814 309.063 396.996 311.442C397.773 312.285 398.586 313.102 399.414 313.868C403.865 318.031 402.217 323.06 401.606 324.503C400.834 326.325 398.405 330.53 392.585 330.22C392.559 330.22 392.533 330.217 392.508 330.217C392.298 330.206 392.088 330.191 391.878 330.176C388.317 329.926 384.807 331.163 382.191 333.604C379.579 336.041 378.092 339.453 378.092 343.028V512H133.911V342.649C133.911 339.074 132.425 335.661 129.813 333.224C127.197 330.787 123.687 329.547 120.125 329.797C119.912 329.812 119.702 329.83 119.489 329.837C119.467 329.841 119.441 329.841 119.419 329.841C113.584 330.143 111.166 325.946 110.394 324.128C109.783 322.685 108.138 317.656 112.586 313.492C113.414 312.726 114.227 311.909 115.004 311.062C117.186 308.684 118.4 305.573 118.4 302.345C118.4 298.928 117.038 295.645 114.625 293.23C112.41 291.013 109.47 289.685 106.346 289.482C106.266 289.475 106.181 289.471 106.096 289.46C103.193 289.162 102.2 287.181 101.876 285.569C101.637 284.354 101.42 281.342 104.661 279.598C113.337 274.918 120.221 268.528 125.125 260.609C130.876 251.313 133.764 240.081 133.713 227.226C133.702 224.579 133.694 222.061 133.694 219.856C133.694 191.642 154.096 165.659 186.937 152.048C193.379 149.379 196.529 142.057 194.038 135.541C189.968 124.902 189.446 116.232 192.485 109.775C193.048 108.586 194.027 108.115 194.752 107.927C195.307 107.783 196.757 107.566 198.192 108.608C208.291 115.927 220.087 117.208 221.4 117.333C224.892 117.657 228.361 116.541 231.014 114.248C233.667 111.954 235.267 108.674 235.451 105.173C236 94.6629 238.663 86.5896 243.369 81.1816C246.931 77.0879 251.901 74.2938 258.141 72.8801C259.429 72.5893 260.301 72.8065 261.052 73.6127C261.769 74.3784 262.119 75.4865 261.89 76.2559C257.486 91.0073 255.993 100.686 255.93 101.091C254.94 107.603 259.024 113.817 265.393 115.489C271.766 117.16 278.37 113.751 280.703 107.588C282.862 101.886 290.592 98.4326 293.918 98.5136C294.235 98.521 301.523 98.8155 301.737 106.977C301.671 107.375 301.509 108.133 301.387 108.707C300.427 113.177 298.823 120.654 302.156 129.135C305.681 138.1 313.525 145.264 326.138 151.029C341.134 158.303 353.853 168.044 362.93 179.206C373.136 191.76 378.309 205.561 378.309 220.235C378.309 222.44 378.302 224.958 378.291 227.602C378.236 240.461 381.128 251.693 386.878 260.988C391.779 268.907 398.663 275.294 407.339 279.973C410.58 281.722 410.367 284.733 410.124 285.948Z" fill="white"/>
<path d="M178.243 285.782C175.94 289.489 172.047 292.394 167.974 293.723C163.095 295.405 157.503 295.07 152.867 292.847C148.595 290.796 146.211 287.719 144.879 284.792C143.603 281.979 146.631 279.141 149.368 280.581C152.517 282.237 156.609 283.835 160.961 284.089C165.638 284.361 170.354 282.745 173.96 281.015C176.962 279.579 180.001 282.955 178.243 285.782Z" fill="white"/>
<path d="M178.478 257.189L177.161 259.475C172.613 267.357 162.54 270.059 154.659 265.509C146.781 260.955 144.081 250.875 148.628 242.993L149.949 240.707C152.999 235.417 158.537 232.465 164.228 232.465C167.025 232.465 169.858 233.175 172.452 234.674C180.329 239.224 183.029 249.307 178.478 257.189Z" fill="white"/>
<path d="M333.522 257.189C328.974 249.307 331.671 239.224 339.552 234.674C342.146 233.175 344.979 232.465 347.772 232.465C353.467 232.465 359.004 235.417 362.054 240.707L363.372 242.993C367.923 250.875 365.222 260.955 357.341 265.509C349.464 270.059 339.39 267.357 334.839 259.475L333.522 257.189Z" fill="white"/>
<path d="M367.124 284.792C365.796 287.719 363.408 290.796 359.14 292.847C354.505 295.07 348.908 295.405 344.033 293.723C339.96 292.394 336.068 289.489 333.761 285.782C332.006 282.955 335.045 279.579 338.047 281.015C341.649 282.745 346.37 284.361 351.046 284.089C355.399 283.835 359.486 282.237 362.639 280.581C365.373 279.141 368.405 281.979 367.124 284.792Z" fill="white"/>
<path d="M435.378 290.999C438.094 277.407 431.739 263.859 419.557 257.288C409.061 251.626 403.987 241.951 404.046 227.712C404.057 225.028 404.064 222.473 404.064 220.235C404.064 209.493 402.092 198.964 398.203 188.943C394.66 179.817 389.516 171.07 382.908 162.945C371.44 148.842 355.641 136.678 337.219 127.766C337.128 127.718 337.036 127.677 336.944 127.633C328.242 123.676 326.465 120.565 326.127 119.703C325.67 118.544 325.987 116.817 326.568 114.115C327.01 112.057 327.51 109.727 327.495 107.146C327.447 97.096 323.584 88.0509 316.623 81.671C310.674 76.2226 302.657 72.9719 294.621 72.751C292.373 72.6921 290.015 72.8946 287.612 73.3474C287.071 67.0191 284.4 60.8712 279.875 56.0228C272.884 48.5348 262.634 45.4425 252.457 47.747C240.764 50.3939 231.172 55.9491 223.943 64.2617C218.519 70.4943 214.612 78.1111 212.257 87.0164C205.197 82.3337 196.551 80.8574 188.339 82.9705C179.884 85.1462 172.904 90.9076 169.188 98.7895C164.438 108.88 163.518 120.414 166.432 133.192C150.854 141.273 137.583 152.037 127.631 164.734C114.75 181.175 107.94 200.238 107.94 219.856C107.94 222.094 107.947 224.649 107.958 227.333C108.017 241.572 102.943 251.251 92.4389 256.913C82.137 262.471 76 273.026 76 284.372C76 286.437 76.2024 288.528 76.6218 290.619C77.9905 297.474 81.3901 303.324 86.1878 307.605C82.9244 315.951 82.9648 325.408 86.6845 334.189C90.8016 343.9 98.6642 350.935 108.157 353.969V512H133.911V342.648C133.911 339.074 132.425 335.661 129.813 333.224C127.197 330.787 123.687 329.546 120.125 329.797C119.912 329.811 119.702 329.83 119.489 329.837C119.467 329.841 119.441 329.841 119.419 329.841C113.584 330.143 111.166 325.946 110.394 324.127C109.783 322.684 108.138 317.655 112.586 313.492C113.414 312.726 114.227 311.909 115.004 311.062C117.186 308.684 118.4 305.573 118.4 302.345C118.4 298.928 117.038 295.644 114.625 293.229C112.41 291.013 109.47 289.684 106.346 289.482C106.266 289.474 106.181 289.471 106.096 289.46C103.193 289.161 102.2 287.181 101.876 285.568C101.637 284.354 101.42 281.342 104.661 279.597C113.337 274.918 120.221 268.527 125.125 260.609C130.876 251.313 133.764 240.081 133.713 227.226C133.702 224.579 133.694 222.061 133.694 219.856C133.694 191.641 154.096 165.658 186.937 152.048C193.379 149.379 196.529 142.057 194.038 135.541C189.968 124.902 189.446 116.232 192.485 109.775C193.048 108.586 194.027 108.114 194.752 107.927C195.307 107.783 196.757 107.566 198.192 108.608C208.291 115.926 220.087 117.207 221.4 117.333C224.892 117.657 228.361 116.541 231.014 114.248C233.667 111.954 235.267 108.674 235.451 105.173C236 94.6626 238.663 86.5893 243.369 81.1814C246.931 77.0877 251.901 74.2935 258.141 72.8799C259.429 72.589 260.301 72.8062 261.052 73.6124C261.769 74.3782 262.119 75.4863 261.89 76.2557C257.486 91.007 255.993 100.685 255.93 101.09C254.94 107.603 259.024 113.817 265.393 115.488C271.766 117.16 278.37 113.751 280.703 107.588C282.862 101.886 290.592 98.4324 293.918 98.5134C294.235 98.5207 301.523 98.8152 301.737 106.977C301.671 107.374 301.509 108.133 301.387 108.707C300.427 113.176 298.823 120.653 302.156 129.135C305.681 138.099 313.525 145.263 326.138 151.028C341.134 158.303 353.853 168.044 362.93 179.206C373.136 191.759 378.309 205.561 378.309 220.235C378.309 222.44 378.302 224.958 378.291 227.601C378.236 240.46 381.128 251.692 386.878 260.988C391.779 268.907 398.663 275.294 407.339 279.973C410.58 281.721 410.367 284.733 410.124 285.948C409.804 287.556 408.81 289.537 405.907 289.839C405.823 289.846 405.738 289.854 405.654 289.857C402.534 290.06 399.59 291.392 397.379 293.605C394.965 296.024 393.604 299.307 393.604 302.724C393.604 305.952 394.814 309.063 396.996 311.441C397.773 312.284 398.586 313.102 399.414 313.867C403.865 318.031 402.217 323.06 401.606 324.503C400.834 326.325 398.405 330.529 392.585 330.22C392.559 330.22 392.533 330.216 392.508 330.216C392.298 330.205 392.088 330.191 391.878 330.176C388.317 329.926 384.807 331.162 382.191 333.603C379.579 336.04 378.092 339.453 378.092 343.028V512H403.847V354.348C413.336 351.314 421.202 344.276 425.319 334.564C429.039 325.788 429.076 316.33 425.812 307.981C430.614 303.703 434.01 297.853 435.378 290.999Z" fill="#020203"/>
<path d="M357.341 265.509C349.464 270.059 339.39 267.357 334.839 259.475L333.522 257.189C328.974 249.307 331.671 239.224 339.552 234.674C342.146 233.175 344.979 232.465 347.772 232.465C353.467 232.465 359.004 235.417 362.054 240.707L363.372 242.993C367.923 250.875 365.222 260.955 357.341 265.509Z" fill="#020203"/>
<path d="M178.478 257.189L177.161 259.475C172.613 267.357 162.54 270.059 154.659 265.509C146.781 260.955 144.081 250.875 148.628 242.993L149.949 240.707C152.999 235.417 158.537 232.465 164.228 232.465C167.025 232.465 169.858 233.175 172.452 234.674C180.329 239.224 183.029 249.307 178.478 257.189Z" fill="#020203"/>
<path d="M300.096 272.434C299.588 275.25 298.845 277.926 297.877 280.455C298.86 276.903 299.64 274.083 300.096 272.434Z" fill="#020203"/>
<path d="M314.975 276.339L314.942 276.454C314.467 278.173 313.621 281.232 312.55 285.105C313.635 282.13 314.493 279.023 315.114 275.798C315.074 275.979 315.026 276.159 314.975 276.339Z" fill="#020203"/>
<path d="M313.783 242.596C309.423 225.735 296.788 212.28 279.12 205.679C259.403 198.309 236.857 200.819 220.278 212.228C207.813 220.809 198.983 233.451 194.03 249.8C186.915 273.302 187.603 295.774 196.08 316.584C203.033 333.662 213.832 346.687 223.409 357.558C227.629 362.352 233.314 364.94 239.384 364.94C240.562 364.94 241.75 364.844 242.946 364.649C251.055 363.312 258.127 357.621 261.397 349.798C261.901 348.594 262.505 347.239 263.219 345.763C266.585 346.426 269.974 347.423 272.715 348.9C275.184 350.229 277.91 350.899 280.666 350.899C282.936 350.899 285.228 350.446 287.417 349.533C292.472 347.42 296.258 343.194 297.804 337.933C299.614 331.759 308.061 301.31 312.55 285.105C313.621 281.232 314.467 278.173 314.942 276.454L314.975 276.34C315.026 276.159 315.074 275.979 315.115 275.798C315.122 275.773 315.126 275.747 315.129 275.717C315.151 275.618 315.17 275.519 315.188 275.416C315.446 274.031 315.659 272.629 315.828 271.204C317.3 258.882 315.177 247.993 313.783 242.596ZM300.556 269.378C300.431 270.412 300.28 271.432 300.096 272.434C299.588 275.25 298.845 277.926 297.877 280.455C297.877 280.455 297.877 280.463 297.877 280.466C294.993 288.002 290.092 294.242 283.226 299.098C269.838 308.566 260.768 319.725 254.812 329.256C251.265 334.936 248.818 340.039 247.218 343.856C247.181 343.945 247.14 344.033 247.104 344.121C245.831 346.919 243.251 349.003 240.455 349.459C238.332 349.809 236.478 349.11 234.955 347.379C215.37 325.151 195.579 297.791 208.758 254.262C212.673 241.337 219.483 231.463 229.005 224.911C233.803 221.608 239.285 219.3 245.069 218.026C239.918 227.937 237.902 234.92 237.302 239.702C236.772 243.947 241.945 246.447 244.97 243.424C248.818 239.577 251.802 232.373 264.267 221.697C265.625 220.533 268.112 218.637 271.615 219.355C272.328 219.584 273.039 219.83 273.745 220.095C286.644 224.914 295.813 234.523 298.9 246.454C300.026 250.802 301.737 259.56 300.563 269.378H300.556Z" fill="#020203"/>
<path d="M178.243 285.782C175.94 289.489 172.047 292.394 167.974 293.723C163.095 295.405 157.503 295.07 152.867 292.847C148.595 290.796 146.211 287.719 144.879 284.792C143.603 281.979 146.631 279.141 149.368 280.581C152.517 282.237 156.609 283.835 160.961 284.089C165.638 284.361 170.354 282.745 173.96 281.015C176.962 279.579 180.001 282.955 178.243 285.782Z" fill="#020203"/>
<path d="M367.124 284.792C365.796 287.719 363.408 290.796 359.14 292.847C354.505 295.07 348.908 295.405 344.033 293.723C339.96 292.394 336.068 289.489 333.761 285.782C332.006 282.955 335.045 279.579 338.047 281.015C341.649 282.745 346.37 284.361 351.046 284.089C355.399 283.835 359.486 282.237 362.639 280.581C365.373 279.141 368.405 281.979 367.124 284.792Z" fill="#020203"/>
</g>
<defs>
<clipPath id="clip0_2655_13891">
<rect width="360" height="465" fill="white" transform="translate(76 47)"/>
</clipPath>
</defs>
</svg>
